X:1
T:Surabaya, 77.77.77
T:Theodore Wood, 1876
T:Surabaya, 77.77.77
T:Public Domain
C:Theodore Wood, 1876
Z:Public Domain
%%score ( 1 2 ) ( 3 4 )
L:1/8
M:6/8
K:G
V:1 treble 
V:2 treble 
V:3 bass 
V:4 bass 
V:1
 [GB]2 [DA] [DG]2 D | (EF)[CG] [B,D]3 | [GB]2 [DA] [DG]2 [GB] | [FA]2 [E^G] [FA]3 | %4
 [Gd]2 [Fc] [GB]2 [DA] | (GA)[GB] [FA]3 | [Gd]2 [Fc] [GB]2 [DFA] | (GA)[GB] [FA]3 | %8
 [Ac]2 [Ac] [GB]2 [GB] | [FA]2 [FA] G3 | [Ge]2 [Ge] [Gd]2 G | [GB]2 [FA] G3 |] %12
V:2
 x5 D | C2 x4 | x6 | x6 | x6 | D2 x4 | x6 | D2 x4 | x6 | x3 G3 | x5 G | x3 G3 |] %12
V:3
 [G,D]2 [F,C] [G,B,]2 [B,,G,] | [C,G,]2 [C,E,G,] G,3 | [G,D]2 [F,C] [G,B,]2 [B,,G,D] | %3
 [D,D]2 [D,D] [D,D]3 | [G,B,]2 [D,A,] [G,D]2 [F,C] | (B,C)[G,D] [D,D]3 | %6
 [G,B,]2 [D,A,] [G,D]2 [F,C] | (B,C)[G,D] [D,D]3 | [F,D]2 [F,D] [G,D]2 [G,D] | %9
 [D,D]2 [D,D] [E,B,]3 | [C,C]2 [C,C] [G,B,]2 [E,B,] | [D,D]2 [D,C] [G,,B,]3 |] %12
V:4
 x6 | x3 G,3 | x6 | x6 | x6 | G,2 x4 | x6 | G,2 x4 | x6 | x6 | x6 | x6 |] %12

